assets/1. P-Z/Screwdriver/Color/Screwdriver-color.svg

<svg width="100%" height="100%" viewBox="0 0 32 32" fill="none" xmlns="http://www.w3.org/2000/svg">
<g filter="url(#filter0_i_18_24342)">
<path d="M23.0306 30.0574C23.8116 30.8385 25.078 30.8385 25.859 30.0574L30.1087 25.8077C30.8897 25.0267 30.8897 23.7604 30.1087 22.9793L22.1041 14.9747C21.4207 14.2913 20.3126 14.2913 19.6292 14.9747L15.026 19.578C14.3426 20.2614 14.3426 21.3694 15.026 22.0528L23.0306 30.0574Z" fill="url(#paint0_linear_18_24342)"/>
<path d="M23.0306 30.0574C23.8116 30.8385 25.078 30.8385 25.859 30.0574L30.1087 25.8077C30.8897 25.0267 30.8897 23.7604 30.1087 22.9793L22.1041 14.9747C21.4207 14.2913 20.3126 14.2913 19.6292 14.9747L15.026 19.578C14.3426 20.2614 14.3426 21.3694 15.026 22.0528L23.0306 30.0574Z" fill="url(#paint1_linear_18_24342)"/>
<path d="M23.0306 30.0574C23.8116 30.8385 25.078 30.8385 25.859 30.0574L30.1087 25.8077C30.8897 25.0267 30.8897 23.7604 30.1087 22.9793L22.1041 14.9747C21.4207 14.2913 20.3126 14.2913 19.6292 14.9747L15.026 19.578C14.3426 20.2614 14.3426 21.3694 15.026 22.0528L23.0306 30.0574Z" fill="url(#paint2_linear_18_24342)"/>
</g>
<g filter="url(#filter1_ii_18_24342)">
<path d="M2.97996 4.13962C2.81712 4.30243 2.7866 4.55539 2.90586 4.75232L5.22678 8.58179C5.30979 8.71869 5.45335 8.80759 5.61289 8.8209L6.87737 8.92628C7.11307 8.94592 7.33418 9.04847 7.50142 9.21572L16.4448 18.1591L18.2104 16.3935L9.21581 7.39885C9.03533 7.21837 8.93069 6.97571 8.92333 6.72058L8.89023 5.57328C8.88523 5.40284 8.7938 5.24668 8.64768 5.15894L4.80295 2.85215C4.6063 2.7341 4.35447 2.76511 4.19224 2.92734L2.97996 4.13962Z" fill="#B9B3BE"/>
</g>
<path d="M2.97996 4.13962C2.81712 4.30243 2.7866 4.55539 2.90586 4.75232L5.22678 8.58179C5.30979 8.71869 5.45335 8.80759 5.61289 8.8209L6.87737 8.92628C7.11307 8.94592 7.33418 9.04847 7.50142 9.21572L16.4448 18.1591L18.2104 16.3935L9.21581 7.39885C9.03533 7.21837 8.93069 6.97571 8.92333 6.72058L8.89023 5.57328C8.88523 5.40284 8.7938 5.24668 8.64768 5.15894L4.80295 2.85215C4.6063 2.7341 4.35447 2.76511 4.19224 2.92734L2.97996 4.13962Z" fill="url(#paint3_linear_18_24342)"/>
<path d="M2.97996 4.13962C2.81712 4.30243 2.7866 4.55539 2.90586 4.75232L5.22678 8.58179C5.30979 8.71869 5.45335 8.80759 5.61289 8.8209L6.87737 8.92628C7.11307 8.94592 7.33418 9.04847 7.50142 9.21572L16.4448 18.1591L18.2104 16.3935L9.21581 7.39885C9.03533 7.21837 8.93069 6.97571 8.92333 6.72058L8.89023 5.57328C8.88523 5.40284 8.7938 5.24668 8.64768 5.15894L4.80295 2.85215C4.6063 2.7341 4.35447 2.76511 4.19224 2.92734L2.97996 4.13962Z" fill="url(#paint4_linear_18_24342)"/>
<path d="M2.97996 4.13962C2.81712 4.30243 2.7866 4.55539 2.90586 4.75232L5.22678 8.58179C5.30979 8.71869 5.45335 8.80759 5.61289 8.8209L6.87737 8.92628C7.11307 8.94592 7.33418 9.04847 7.50142 9.21572L16.4448 18.1591L18.2104 16.3935L9.21581 7.39885C9.03533 7.21837 8.93069 6.97571 8.92333 6.72058L8.89023 5.57328C8.88523 5.40284 8.7938 5.24668 8.64768 5.15894L4.80295 2.85215C4.6063 2.7341 4.35447 2.76511 4.19224 2.92734L2.97996 4.13962Z" fill="url(#paint5_radial_18_24342)"/>
<path d="M2.97996 4.13962C2.81712 4.30243 2.7866 4.55539 2.90586 4.75232L5.22678 8.58179C5.30979 8.71869 5.45335 8.80759 5.61289 8.8209L6.87737 8.92628C7.11307 8.94592 7.33418 9.04847 7.50142 9.21572L16.4448 18.1591L18.2104 16.3935L9.21581 7.39885C9.03533 7.21837 8.93069 6.97571 8.92333 6.72058L8.89023 5.57328C8.88523 5.40284 8.7938 5.24668 8.64768 5.15894L4.80295 2.85215C4.6063 2.7341 4.35447 2.76511 4.19224 2.92734L2.97996 4.13962Z" fill="url(#paint6_radial_18_24342)"/>
<g filter="url(#filter2_f_18_24342)">
<path fill-rule="evenodd" clip-rule="evenodd" d="M21.6627 16.9036L28.5536 23.7945C29.0484 24.2893 29.0484 25.0914 28.5536 25.5862C28.0589 26.0809 27.2567 26.0809 26.762 25.5862L19.8711 18.6953C19.3763 18.2005 19.3763 17.3984 19.8711 16.9036C20.3658 16.4088 21.168 16.4088 21.6627 16.9036Z" fill="url(#paint7_linear_18_24342)"/>
<path d="M28.6597 23.6885L21.7688 16.7975C21.2155 16.2442 20.3183 16.2442 19.765 16.7975C19.2117 17.3509 19.2117 18.248 19.765 18.8013L26.6559 25.6923C27.2092 26.2456 28.1064 26.2456 28.6597 25.6923C29.213 25.1389 29.213 24.2418 28.6597 23.6885Z" stroke="url(#paint8_linear_18_24342)" stroke-width="0.3"/>
</g>
<g filter="url(#filter3_f_18_24342)">
<rect x="19.8933" y="17.7607" width="0.857175" height="10.6572" rx="0.428588" transform="rotate(-45 19.8933 17.7607)" fill="url(#paint9_linear_18_24342)"/>
</g>
<g filter="url(#filter4_f_18_24342)">
<rect x="16" y="20.5844" width="2.11434" height="12.3246" rx="1.05717" transform="rotate(-45 16 20.5844)" fill="url(#paint10_linear_18_24342)"/>
</g>
<g filter="url(#filter5_f_18_24342)">
<rect x="16.6401" y="20.6044" width="1.23744" height="11.3911" rx="0.618718" transform="rotate(-45 16.6401 20.6044)" fill="url(#paint11_linear_18_24342)"/>
</g>
<g filter="url(#filter6_f_18_24342)">
<rect width="0.745221" height="10.4782" rx="0.37261" transform="matrix(-0.707107 0.707107 0.707107 0.707107 17.149 20.741)" fill="url(#paint12_linear_18_24342)"/>
</g>
<rect x="11.6323" y="18.6591" width="10.01" height="3.0494" rx="1.5247" transform="rotate(-45 11.6323 18.6591)" fill="url(#paint13_radial_18_24342)"/>
<rect x="11.6323" y="18.6591" width="10.01" height="3.0494" rx="1.5247" transform="rotate(-45 11.6323 18.6591)" fill="url(#paint14_linear_18_24342)"/>
<rect x="11.6323" y="18.6591" width="10.01" height="3.0494" rx="1.5247" transform="rotate(-45 11.6323 18.6591)" fill="url(#paint15_linear_18_24342)"/>
<rect x="11.6323" y="18.6591" width="10.01" height="3.0494" rx="1.5247" transform="rotate(-45 11.6323 18.6591)" fill="url(#paint16_radial_18_24342)"/>
<defs>
<filter id="filter0_i_18_24342" x="14.5134" y="13.9622" width="16.1811" height="16.681" filterUnits="userSpaceOnUse" color-interpolation-filters="sRGB">
<feFlood flood-opacity="0" result="BackgroundImageFix"/>
<feBlend mode="normal" in="SourceGraphic" in2="BackgroundImageFix" result="shape"/>
<feColorMatrix in="SourceAlpha" type="matrix" values="0 0 0 0 0 0 0 0 0 0 0 0 0 0 0 0 0 0 127 0" result="hardAlpha"/>
<feOffset dy="-0.5"/>
<feGaussianBlur stdDeviation="0.5"/>
<feComposite in2="hardAlpha" operator="arithmetic" k2="-1" k3="1"/>
<feColorMatrix type="matrix" values="0 0 0 0 0.835294 0 0 0 0 0.317647 0 0 0 0 0.572549 0 0 0 1 0"/>
<feBlend mode="normal" in2="shape" result="effect1_innerShadow_18_24342"/>
</filter>
<filter id="filter1_ii_18_24342" x="2.3335" y="2.28088" width="16.3769" height="16.3782" filterUnits="userSpaceOnUse" color-interpolation-filters="sRGB">
<feFlood flood-opacity="0" result="BackgroundImageFix"/>
<feBlend mode="normal" in="SourceGraphic" in2="BackgroundImageFix" result="shape"/>
<feColorMatrix in="SourceAlpha" type="matrix" values="0 0 0 0 0 0 0 0 0 0 0 0 0 0 0 0 0 0 127 0" result="hardAlpha"/>
<feOffset dx="0.5" dy="-0.5"/>
<feGaussianBlur stdDeviation="0.25"/>
<feComposite in2="hardAlpha" operator="arithmetic" k2="-1" k3="1"/>
<feColorMatrix type="matrix" values="0 0 0 0 0.615686 0 0 0 0 0.572549 0 0 0 0 0.631373 0 0 0 1 0"/>
<feBlend mode="normal" in2="shape" result="effect1_innerShadow_18_24342"/>
<feColorMatrix in="SourceAlpha" type="matrix" values="0 0 0 0 0 0 0 0 0 0 0 0 0 0 0 0 0 0 127 0" result="hardAlpha"/>
<feOffset dx="-0.5" dy="0.5"/>
<feGaussianBlur stdDeviation="0.25"/>
<feComposite in2="hardAlpha" operator="arithmetic" k2="-1" k3="1"/>
<feColorMatrix type="matrix" values="0 0 0 0 0.85098 0 0 0 0 0.843137 0 0 0 0 0.858824 0 0 0 1 0"/>
<feBlend mode="normal" in2="effect1_innerShadow_18_24342" result="effect2_innerShadow_18_24342"/>
</filter>
<filter id="filter2_f_18_24342" x="18.55" y="15.5825" width="11.3247" height="11.3247" filterUnits="userSpaceOnUse" color-interpolation-filters="sRGB">
<feFlood flood-opacity="0" result="BackgroundImageFix"/>
<feBlend mode="normal" in="SourceGraphic" in2="BackgroundImageFix" result="shape"/>
<feGaussianBlur stdDeviation="0.325" result="effect1_foregroundBlur_18_24342"/>
</filter>
<filter id="filter3_f_18_24342" x="19.4708" y="16.7322" width="8.98687" height="8.98687" filterUnits="userSpaceOnUse" color-interpolation-filters="sRGB">
<feFlood flood-opacity="0" result="BackgroundImageFix"/>
<feBlend mode="normal" in="SourceGraphic" in2="BackgroundImageFix" result="shape"/>
<feGaussianBlur stdDeviation="0.3" result="effect1_foregroundBlur_18_24342"/>
</filter>
<filter id="filter4_f_18_24342" x="15.7879" y="18.8772" width="10.6341" height="10.6341" filterUnits="userSpaceOnUse" color-interpolation-filters="sRGB">
<feFlood flood-opacity="0" result="BackgroundImageFix"/>
<feBlend mode="normal" in="SourceGraphic" in2="BackgroundImageFix" result="shape"/>
<feGaussianBlur stdDeviation="0.325" result="effect1_foregroundBlur_18_24342"/>
</filter>
<filter id="filter5_f_18_24342" x="16.3964" y="19.4857" width="9.41714" height="9.41711" filterUnits="userSpaceOnUse" color-interpolation-filters="sRGB">
<feFlood flood-opacity="0" result="BackgroundImageFix"/>
<feBlend mode="normal" in="SourceGraphic" in2="BackgroundImageFix" result="shape"/>
<feGaussianBlur stdDeviation="0.25" result="effect1_foregroundBlur_18_24342"/>
</filter>
<filter id="filter6_f_18_24342" x="16.2764" y="20.3953" width="8.6275" height="8.6275" filterUnits="userSpaceOnUse" color-interpolation-filters="sRGB">
<feFlood flood-opacity="0" result="BackgroundImageFix"/>
<feBlend mode="normal" in="SourceGraphic" in2="BackgroundImageFix" result="shape"/>
<feGaussianBlur stdDeviation="0.25" result="effect1_foregroundBlur_18_24342"/>
</filter>
<linearGradient id="paint0_linear_18_24342" x1="18.0933" y1="18.9795" x2="27.9058" y2="28.8545" gradientUnits="userSpaceOnUse">
<stop stop-color="#FF509E"/>
<stop offset="1" stop-color="#FF426F"/>
</linearGradient>
<linearGradient id="paint1_linear_18_24342" x1="15.7963" y1="22.5527" x2="25.9578" y2="19.9702" gradientUnits="userSpaceOnUse">
<stop stop-color="#DE2E8A"/>
<stop offset="1" stop-color="#DE2E8A" stop-opacity="0"/>
</linearGradient>
<linearGradient id="paint2_linear_18_24342" x1="17.0232" y1="17.013" x2="18.2816" y2="18.2714" gradientUnits="userSpaceOnUse">
<stop offset="0.184616" stop-color="#E1045D"/>
<stop offset="1" stop-color="#ED2786" stop-opacity="0"/>
</linearGradient>
<linearGradient id="paint3_linear_18_24342" x1="3.62451" y1="3.47943" x2="4.35889" y2="4.19818" gradientUnits="userSpaceOnUse">
<stop offset="0.0237304" stop-color="#A4A09D"/>
<stop offset="1" stop-color="#A4A09D" stop-opacity="0"/>
</linearGradient>
<linearGradient id="paint4_linear_18_24342" x1="15.812" y1="16.2919" x2="13.8901" y2="14.3701" gradientUnits="userSpaceOnUse">
<stop offset="0.357723" stop-color="#7C7073"/>
<stop offset="1" stop-color="#BAB4BF" stop-opacity="0"/>
</linearGradient>
<radialGradient id="paint5_radial_18_24342" cx="0" cy="0" r="1" gradientUnits="userSpaceOnUse" gradientTransform="translate(6.15576 9.44818) rotate(8.03571) scale(2.68259 1.55116)">
<stop offset="0.262179" stop-color="#9573AD"/>
<stop offset="1" stop-color="#A095A4" stop-opacity="0"/>
</radialGradient>
<radialGradient id="paint6_radial_18_24342" cx="0" cy="0" r="1" gradientUnits="userSpaceOnUse" gradientTransform="translate(10.522 12.1982) rotate(44.2398) scale(5.46468 0.404241)">
<stop stop-color="#9B819F"/>
<stop offset="1" stop-color="#9B819F" stop-opacity="0"/>
</radialGradient>
<linearGradient id="paint7_linear_18_24342" x1="20.5781" y1="17.6107" x2="27.8465" y2="24.8791" gradientUnits="userSpaceOnUse">
<stop stop-color="#FF399D"/>
<stop offset="1" stop-color="#FF335A"/>
</linearGradient>
<linearGradient id="paint8_linear_18_24342" x1="19.8711" y1="16.9036" x2="28.5536" y2="25.5862" gradientUnits="userSpaceOnUse">
<stop stop-color="#FF66B1"/>
<stop offset="1" stop-color="#FF667D"/>
</linearGradient>
<linearGradient id="paint9_linear_18_24342" x1="20.3219" y1="17.7607" x2="20.3219" y2="28.418" gradientUnits="userSpaceOnUse">
<stop stop-color="#FF65A8"/>
<stop offset="1" stop-color="#FF5F7E"/>
</linearGradient>
<linearGradient id="paint10_linear_18_24342" x1="17.0572" y1="20.5844" x2="17.0572" y2="32.909" gradientUnits="userSpaceOnUse">
<stop stop-color="#EE2391"/>
<stop offset="1" stop-color="#ED2E59"/>
</linearGradient>
<linearGradient id="paint11_linear_18_24342" x1="17.2589" y1="20.6044" x2="17.2589" y2="31.9955" gradientUnits="userSpaceOnUse">
<stop stop-color="#F0278F"/>
<stop offset="1" stop-color="#EB2B63"/>
</linearGradient>
<linearGradient id="paint12_linear_18_24342" x1="0.37261" y1="0" x2="0.37261" y2="10.4782" gradientUnits="userSpaceOnUse">
<stop stop-color="#FB4092"/>
<stop offset="1" stop-color="#FD4574"/>
</linearGradient>
<radialGradient id="paint13_radial_18_24342" cx="0" cy="0" r="1" gradientUnits="userSpaceOnUse" gradientTransform="translate(12.925 21.4654) rotate(0.153603) scale(8.24224 4.61857)">
<stop stop-color="#D2299A"/>
<stop offset="1" stop-color="#FF4F64"/>
</radialGradient>
<linearGradient id="paint14_linear_18_24342" x1="18.3167" y1="21.8632" x2="18.3167" y2="21.3329" gradientUnits="userSpaceOnUse">
<stop stop-color="#AF0241"/>
<stop offset="1" stop-color="#DE1A88" stop-opacity="0"/>
</linearGradient>
<linearGradient id="paint15_linear_18_24342" x1="16.6594" y1="18.3498" x2="16.6594" y2="19.7419" gradientUnits="userSpaceOnUse">
<stop stop-color="#C25067"/>
<stop offset="1" stop-color="#EA2C6B" stop-opacity="0"/>
</linearGradient>
<radialGradient id="paint16_radial_18_24342" cx="0" cy="0" r="1" gradientUnits="userSpaceOnUse" gradientTransform="translate(19.4657 20.3606) rotate(-180) scale(4.37522 0.839689)">
<stop offset="0.142045" stop-color="#FF678B"/>
<stop offset="1" stop-color="#FF678B" stop-opacity="0"/>
</radialGradient>
</defs>
</svg>

<svg width="100%" height="100%" viewBox="0 0 32 32" xmlns="http://www.w3.org/2000/svg"><g filter="url(#a)"><path fill="url(#b)" d="M23.03 30.057a2 2 0 0 0 2.829 0l4.25-4.25a2 2 0 0 0 0-2.828l-8.005-8.004a1.75 1.75 0 0 0-2.475 0l-4.603 4.603a1.75 1.75 0 0 0 0 2.475z"/><path fill="url(#c)" d="M23.03 30.057a2 2 0 0 0 2.829 0l4.25-4.25a2 2 0 0 0 0-2.828l-8.005-8.004a1.75 1.75 0 0 0-2.475 0l-4.603 4.603a1.75 1.75 0 0 0 0 2.475z"/><path fill="url(#d)" d="M23.03 30.057a2 2 0 0 0 2.829 0l4.25-4.25a2 2 0 0 0 0-2.828l-8.005-8.004a1.75 1.75 0 0 0-2.475 0l-4.603 4.603a1.75 1.75 0 0 0 0 2.475z"/></g><g filter="url(#e)"><path fill="#B9B3BE" d="M2.98 4.14a.5.5 0 0 0-.074.612l2.32 3.83a.5.5 0 0 0 .387.239l1.264.105a1 1 0 0 1 .624.29l8.944 8.943 1.765-1.765-8.994-8.995a1 1 0 0 1-.293-.678L8.89 5.573a.5.5 0 0 0-.242-.414L4.803 2.852a.5.5 0 0 0-.61.075z"/></g><path fill="url(#f)" d="M2.98 4.14a.5.5 0 0 0-.074.612l2.32 3.83a.5.5 0 0 0 .387.239l1.264.105a1 1 0 0 1 .624.29l8.944 8.943 1.765-1.765-8.994-8.995a1 1 0 0 1-.293-.678L8.89 5.573a.5.5 0 0 0-.242-.414L4.803 2.852a.5.5 0 0 0-.61.075z"/><path fill="url(#g)" d="M2.98 4.14a.5.5 0 0 0-.074.612l2.32 3.83a.5.5 0 0 0 .387.239l1.264.105a1 1 0 0 1 .624.29l8.944 8.943 1.765-1.765-8.994-8.995a1 1 0 0 1-.293-.678L8.89 5.573a.5.5 0 0 0-.242-.414L4.803 2.852a.5.5 0 0 0-.61.075z"/><path fill="url(#h)" d="M2.98 4.14a.5.5 0 0 0-.074.612l2.32 3.83a.5.5 0 0 0 .387.239l1.264.105a1 1 0 0 1 .624.29l8.944 8.943 1.765-1.765-8.994-8.995a1 1 0 0 1-.293-.678L8.89 5.573a.5.5 0 0 0-.242-.414L4.803 2.852a.5.5 0 0 0-.61.075z"/><path fill="url(#i)" d="M2.98 4.14a.5.5 0 0 0-.074.612l2.32 3.83a.5.5 0 0 0 .387.239l1.264.105a1 1 0 0 1 .624.29l8.944 8.943 1.765-1.765-8.994-8.995a1 1 0 0 1-.293-.678L8.89 5.573a.5.5 0 0 0-.242-.414L4.803 2.852a.5.5 0 0 0-.61.075z"/><g filter="url(#j)"><path fill="url(#k)" fill-rule="evenodd" d="m21.663 16.904 6.89 6.89a1.267 1.267 0 1 1-1.791 1.792l-6.89-6.89a1.267 1.267 0 1 1 1.79-1.792" clip-rule="evenodd"/><path stroke="url(#l)" stroke-width=".3" d="m28.66 23.689-6.891-6.892a1.417 1.417 0 0 0-2.004 2.004l6.89 6.891a1.417 1.417 0 0 0 2.005-2.003Z"/></g><g filter="url(#m)"><rect width=".857" height="10.657" x="19.893" y="17.761" fill="url(#n)" rx=".429" transform="rotate(-45 19.893 17.76)"/></g><g filter="url(#o)"><rect width="2.114" height="12.325" x="16" y="20.584" fill="url(#p)" rx="1.057" transform="rotate(-45 16 20.584)"/></g><g filter="url(#q)"><rect width="1.237" height="11.391" x="16.64" y="20.604" fill="url(#r)" rx=".619" transform="rotate(-45 16.64 20.604)"/></g><g filter="url(#s)"><rect width=".745" height="10.478" fill="url(#t)" rx=".373" transform="scale(-1 1)rotate(45 -33.611 -10.33)"/></g><rect width="10.01" height="3.049" x="11.632" y="18.659" fill="url(#u)" rx="1.525" transform="rotate(-45 11.632 18.66)"/><rect width="10.01" height="3.049" x="11.632" y="18.659" fill="url(#v)" rx="1.525" transform="rotate(-45 11.632 18.66)"/><rect width="10.01" height="3.049" x="11.632" y="18.659" fill="url(#w)" rx="1.525" transform="rotate(-45 11.632 18.66)"/><rect width="10.01" height="3.049" x="11.632" y="18.659" fill="url(#x)" rx="1.525" transform="rotate(-45 11.632 18.66)"/><defs><linearGradient id="b" x1="18.093" x2="27.906" y1="18.98" y2="28.855" gradientUnits="userSpaceOnUse"><stop stop-color="#FF509E"/><stop offset="1" stop-color="#FF426F"/></linearGradient><linearGradient id="c" x1="15.796" x2="25.958" y1="22.553" y2="19.97" gradientUnits="userSpaceOnUse"><stop stop-color="#DE2E8A"/><stop offset="1" stop-color="#DE2E8A" stop-opacity="0"/></linearGradient><linearGradient id="d" x1="17.023" x2="18.282" y1="17.013" y2="18.271" gradientUnits="userSpaceOnUse"><stop offset=".185" stop-color="#E1045D"/><stop offset="1" stop-color="#ED2786" stop-opacity="0"/></linearGradient><linearGradient id="f" x1="3.625" x2="4.359" y1="3.479" y2="4.198" gradientUnits="userSpaceOnUse"><stop offset=".024" stop-color="#A4A09D"/><stop offset="1" stop-color="#A4A09D" stop-opacity="0"/></linearGradient><linearGradient id="g" x1="15.812" x2="13.89" y1="16.292" y2="14.37" gradientUnits="userSpaceOnUse"><stop offset=".358" stop-color="#7C7073"/><stop offset="1" stop-color="#BAB4BF" stop-opacity="0"/></linearGradient><linearGradient id="k" x1="20.578" x2="27.846" y1="17.611" y2="24.879" gradientUnits="userSpaceOnUse"><stop stop-color="#FF399D"/><stop offset="1" stop-color="#FF335A"/></linearGradient><linearGradient id="l" x1="19.871" x2="28.554" y1="16.904" y2="25.586" gradientUnits="userSpaceOnUse"><stop stop-color="#FF66B1"/><stop offset="1" stop-color="#FF667D"/></linearGradient><linearGradient id="n" x1="20.322" x2="20.322" y1="17.761" y2="28.418" gradientUnits="userSpaceOnUse"><stop stop-color="#FF65A8"/><stop offset="1" stop-color="#FF5F7E"/></linearGradient><linearGradient id="p" x1="17.057" x2="17.057" y1="20.584" y2="32.909" gradientUnits="userSpaceOnUse"><stop stop-color="#EE2391"/><stop offset="1" stop-color="#ED2E59"/></linearGradient><linearGradient id="r" x1="17.259" x2="17.259" y1="20.604" y2="31.995" gradientUnits="userSpaceOnUse"><stop stop-color="#F0278F"/><stop offset="1" stop-color="#EB2B63"/></linearGradient><linearGradient id="t" x1=".373" x2=".373" y1="0" y2="10.478" gradientUnits="userSpaceOnUse"><stop stop-color="#FB4092"/><stop offset="1" stop-color="#FD4574"/></linearGradient><linearGradient id="v" x1="18.317" x2="18.317" y1="21.863" y2="21.333" gradientUnits="userSpaceOnUse"><stop stop-color="#AF0241"/><stop offset="1" stop-color="#DE1A88" stop-opacity="0"/></linearGradient><linearGradient id="w" x1="16.659" x2="16.659" y1="18.35" y2="19.742" gradientUnits="userSpaceOnUse"><stop stop-color="#C25067"/><stop offset="1" stop-color="#EA2C6B" stop-opacity="0"/></linearGradient><filter id="a" width="16.181" height="16.681" x="14.513" y="13.962" color-interpolation-filters="sRGB" filterUnits="userSpaceOnUse"><feFlood flood-opacity="0" result="BackgroundImageFix"/><feBlend in="SourceGraphic" in2="BackgroundImageFix" result="shape"/><feColorMatrix in="SourceAlpha" result="hardAlpha" values="0 0 0 0 0 0 0 0 0 0 0 0 0 0 0 0 0 0 127 0"/><feOffset dy="-.5"/><feGaussianBlur stdDeviation=".5"/><feComposite in2="hardAlpha" k2="-1" k3="1" operator="arithmetic"/><feColorMatrix values="0 0 0 0 0.835294 0 0 0 0 0.317647 0 0 0 0 0.572549 0 0 0 1 0"/><feBlend in2="shape" result="effect1_innerShadow_18_24342"/></filter><filter id="e" width="16.377" height="16.378" x="2.333" y="2.281" color-interpolation-filters="sRGB" filterUnits="userSpaceOnUse"><feFlood flood-opacity="0" result="BackgroundImageFix"/><feBlend in="SourceGraphic" in2="BackgroundImageFix" result="shape"/><feColorMatrix in="SourceAlpha" result="hardAlpha" values="0 0 0 0 0 0 0 0 0 0 0 0 0 0 0 0 0 0 127 0"/><feOffset dx=".5" dy="-.5"/><feGaussianBlur stdDeviation=".25"/><feComposite in2="hardAlpha" k2="-1" k3="1" operator="arithmetic"/><feColorMatrix values="0 0 0 0 0.615686 0 0 0 0 0.572549 0 0 0 0 0.631373 0 0 0 1 0"/><feBlend in2="shape" result="effect1_innerShadow_18_24342"/><feColorMatrix in="SourceAlpha" result="hardAlpha" values="0 0 0 0 0 0 0 0 0 0 0 0 0 0 0 0 0 0 127 0"/><feOffset dx="-.5" dy=".5"/><feGaussianBlur stdDeviation=".25"/><feComposite in2="hardAlpha" k2="-1" k3="1" operator="arithmetic"/><feColorMatrix values="0 0 0 0 0.85098 0 0 0 0 0.843137 0 0 0 0 0.858824 0 0 0 1 0"/><feBlend in2="effect1_innerShadow_18_24342" result="effect2_innerShadow_18_24342"/></filter><filter id="j" width="11.325" height="11.325" x="18.55" y="15.582" color-interpolation-filters="sRGB" filterUnits="userSpaceOnUse"><feFlood flood-opacity="0" result="BackgroundImageFix"/><feBlend in="SourceGraphic" in2="BackgroundImageFix" result="shape"/><feGaussianBlur result="effect1_foregroundBlur_18_24342" stdDeviation=".325"/></filter><filter id="m" width="8.987" height="8.987" x="19.471" y="16.732" color-interpolation-filters="sRGB" filterUnits="userSpaceOnUse"><feFlood flood-opacity="0" result="BackgroundImageFix"/><feBlend in="SourceGraphic" in2="BackgroundImageFix" result="shape"/><feGaussianBlur result="effect1_foregroundBlur_18_24342" stdDeviation=".3"/></filter><filter id="o" width="10.634" height="10.634" x="15.788" y="18.877" color-interpolation-filters="sRGB" filterUnits="userSpaceOnUse"><feFlood flood-opacity="0" result="BackgroundImageFix"/><feBlend in="SourceGraphic" in2="BackgroundImageFix" result="shape"/><feGaussianBlur result="effect1_foregroundBlur_18_24342" stdDeviation=".325"/></filter><filter id="q" width="9.417" height="9.417" x="16.396" y="19.486" color-interpolation-filters="sRGB" filterUnits="userSpaceOnUse"><feFlood flood-opacity="0" result="BackgroundImageFix"/><feBlend in="SourceGraphic" in2="BackgroundImageFix" result="shape"/><feGaussianBlur result="effect1_foregroundBlur_18_24342" stdDeviation=".25"/></filter><filter id="s" width="8.627" height="8.627" x="16.276" y="20.395" color-interpolation-filters="sRGB" filterUnits="userSpaceOnUse"><feFlood flood-opacity="0" result="BackgroundImageFix"/><feBlend in="SourceGraphic" in2="BackgroundImageFix" result="shape"/><feGaussianBlur result="effect1_foregroundBlur_18_24342" stdDeviation=".25"/></filter><radialGradient id="h" cx="0" cy="0" r="1" gradientTransform="matrix(2.65625 .375 -.21684 1.53593 6.156 9.448)" gradientUnits="userSpaceOnUse"><stop offset=".262" stop-color="#9573AD"/><stop offset="1" stop-color="#A095A4" stop-opacity="0"/></radialGradient><radialGradient id="i" cx="0" cy="0" r="1" gradientTransform="rotate(44.24 -9.744 19.042)scale(5.46468 .40424)" gradientUnits="userSpaceOnUse"><stop stop-color="#9B819F"/><stop offset="1" stop-color="#9B819F" stop-opacity="0"/></radialGradient><radialGradient id="u" cx="0" cy="0" r="1" gradientTransform="matrix(8.24221 .0221 -.01238 4.61855 12.925 21.465)" gradientUnits="userSpaceOnUse"><stop stop-color="#D2299A"/><stop offset="1" stop-color="#FF4F64"/></radialGradient><radialGradient id="x" cx="0" cy="0" r="1" gradientTransform="matrix(-4.37522 0 0 -.83969 19.466 20.36)" gradientUnits="userSpaceOnUse"><stop offset=".142" stop-color="#FF678B"/><stop offset="1" stop-color="#FF678B" stop-opacity="0"/></radialGradient></defs></svg>
